logo/brainjs.svg

<?xml version="1.0" encoding="UTF-8"?>
<svg width="256px" height="256px" viewBox="0 0 256 256" version="1.1" xmlns="http://www.w3.org/2000/svg" xmlns:xlink="http://www.w3.org/1999/xlink" preserveAspectRatio="xMidYMid">
    <title>brainjs</title>
    <g>
        <rect fill="#F3DF49" x="0" y="0" width="256" height="256"></rect>
        <path d="M175.744,196.096 L208.768,214.528 L198.656,238.336 L189.952,238.336 L182.784,227.456 L129.664,213.248 L175.744,196.096 Z M134.144,141.312 L171.648,171.008 L171.648,190.336 L121.344,209.792 L95.104,211.072 L74.88,183.936 L93.952,157.824 L134.144,141.312 Z M189.952,132.48 L236.8,161.28 L231.04,196.608 L212.992,209.92 L178.432,190.336 L178.432,171.008 L171.904,133.632 L189.952,132.48 Z M164.992,134.784 L170.88,162.56 L142.208,138.624 L164.992,134.784 Z" fill="#2E2E2C"></path>
    </g>
</svg>

<svg viewBox="0 0 256 256" xmlns="http://www.w3.org/2000/svg"><path fill="#F3DF49" d="M0 0h256v256H0Z"/><path fill="#2E2E2C" d="M175.74 196.096l33.02 18.43 -10.12 23.8h-8.71l-7.17-10.88 -53.12-14.21 46.08-17.16Zm-41.6-54.79l37.5 29.69v19.32l-50.31 19.45 -26.24 1.28 -20.23-27.14 19.07-26.12 40.19-16.512Zm55.8-8.84l46.84 28.8 -5.76 35.328 -18.05 13.31 -34.56-19.59v-19.33l-6.53-37.38 18.04-1.16Zm-24.96 2.3l5.88 27.77 -28.68-23.94 22.78-3.84Z"/></svg>
